X: 10099
T: SHANE'S JIG
C: Bob McQuillen 10 Nov 93
B: Bob's Note Book 10 #99
%R: jig
Z: 2020 John Chambers <jc:trillian.mit.edu>
M: 6/8
L: 1/8
K: G
A \
| Bcd cBA | GBG D2E | DGG BAG | AcB AFD |\
| Bcd cBA | GBG D2D | EcB AGF | G3  G2 :|
|: B \
| dBd cde | fga g2d | cde dge | dcB AGA |\
| BAB cde | fga gdB | GAB Adc | BGG G2 :|
%%begintext align
%% Two days before I wrote this tune,
%% the phone rang and it was one of my former school boys who is in the Navy
%% calling me up just to say "hello". I said "where are you?" and he said "Puerto Rico."
%% Well, I thought that was a pretty nice thing for Shane Sullivan to do (he's Nicki Noonan's
%% cousin, by the way) and so I thought the least I could do was write him a tune
%% by way of saying "_thanks_" - love to you and to your nice Veronica, Shane -
%% (P.S.- I love my new hat!)
%%endtext

%%sep 1 1 500

%%sep 1 1 500

